www/assets/icons/wifi_calling.svg

<svg xmlns="http://www.w3.org/2000/svg" width="24" height="24" viewBox="0 0 24 24" fill='currentColor'><path d="M21.5 4.95C21.29 4.78 19.17 3 16 3c-3.18 0-5.29 1.78-5.5 1.95L16 12z"/><path d="M19.5 15.51c-1.24 0-2.45-.2-3.57-.57a.99.99 0 0 0-1.02.24l-2.2 2.2a15.15 15.15 0 0 1-6.59-6.59l2.2-2.2c.28-.28.36-.67.25-1.02A11.4 11.4 0 0 1 8 4c0-.55-.45-1-1-1H3.5c-.55 0-1 .45-1 1 0 9.39 7.61 17 17 17 .55 0 1-.45 1-1v-3.49c0-.55-.45-1-1-1"/></svg>

<svg width="24" height="24" viewBox="0 0 24 24" xmlns="http://www.w3.org/2000/svg" fill='currentColor'><path d="M21.5 4.95C21.29 4.78 19.17 3 16 3C12.82 3 10.71 4.78 10.5 4.95L16 12L21.5 4.95Z"/><path d="M19.5 15.51C18.26 15.51 17.05 15.31 15.93 14.94C15.58 14.82 15.18 14.91 14.91 15.18L12.71 17.38C9.88 15.93 7.56 13.62 6.12 10.79L8.32 8.59C8.6 8.31 8.68 7.92 8.57 7.57C8.2 6.45 8 5.25 8 4C8 3.45 7.55 3 7 3H3.5C2.95 3 2.5 3.45 2.5 4C2.5 13.39 10.11 21 19.5 21C20.05 21 20.5 20.55 20.5 20V16.51C20.5 15.96 20.05 15.51 19.5 15.51Z"/></svg>
